OBS Studio/Fluent Dark Grey/media/media_next.svg

<svg viewBox="64 64 896 896" xmlns="http://www.w3.org/2000/svg"><path d="m896 928v-832c0-8.6666 3.167-16.167 9.5-22.5 6.333-6.3333 13.833-9.4999 22.5-9.5 8.667 1e-4 16.167 3.1667 22.5 9.5 6.333 6.3334 9.5 13.833 9.5 22.5v832c0 8.667-3.167 16.167-9.5 22.5s-13.833 9.5-22.5 9.5-16.167-3.167-22.5-9.5-9.5-13.833-9.5-22.5zm-832-57v-718c0-11 2.1667-21.417 6.5-31.25s10.083-18.333 17.25-25.5c7.1667-7.1666 15.667-12.833 25.5-17 9.833-4.1666 20.25-6.2499 31.25-6.25 15.333 1e-4 29.833 4.5001 43.5 13.5l544.5 358.5c11.333 7.333 20.167 16.917 26.5 28.75s9.5 24.583 9.5 38.25-3.167 26.417-9.5 38.25-15.167 21.417-26.5 28.75l-544.5 358.5c-6.667 4.333-13.75 7.667-21.25 10s-15.25 3.5-23.25 3.5c-11 0-21.25-2.167-30.75-6.5s-17.917-10.083-25.25-17.25-13.083-15.583-17.25-25.25-6.25-20-6.25-31zm640.5-359c0-2.667-0.583-5.167-1.75-7.5s-2.917-4.333-5.25-6l-544.5-359c-1-0.667-2.417-1.25-4.25-1.75s-3.417-0.75-4.75-0.75c-4.333 0-8.083 1.583-11.25 4.75s-4.75 6.917-4.75 11.25v718c0 4.667 1.583 8.5 4.75 11.5s7.083 4.5 11.75 4.5c2.667 0 5.333-0.833 8-2.5l545-359c2.333-1.667 4.083-3.667 5.25-6s1.75-4.833 1.75-7.5z" fill="#fff"></path></svg>

<!-- Exported by Character Map UWP -->
<svg height="100%" viewBox="64 64 896 896" width="100%" xmlns="http://www.w3.org/2000/svg" xmlns:xlink="http://www.w3.org/1999/xlink">
  <path d="M896,928L896,96C896,87.3334 899.167,79.8334 905.5,73.5C911.833,67.1667 919.333,64.0001 928,64C936.667,64.0001 944.167,67.1667 950.5,73.5C956.833,79.8334 960,87.3334 960,96L960,928C960,936.667 956.833,944.167 950.5,950.5C944.167,956.833 936.667,960 928,960C919.333,960 911.833,956.833 905.5,950.5C899.167,944.167 896,936.667 896,928ZM64,871L64,153C64,142 66.1667,131.583 70.5,121.75C74.8333,111.917 80.5833,103.417 87.75,96.25C94.9167,89.0834 103.417,83.4167 113.25,79.25C123.083,75.0834 133.5,73.0001 144.5,73C159.833,73.0001 174.333,77.5001 188,86.5L732.5,445C743.833,452.333 752.667,461.917 759,473.75C765.333,485.583 768.5,498.333 768.5,512C768.5,525.667 765.333,538.417 759,550.25C752.667,562.083 743.833,571.667 732.5,579L188,937.5C181.333,941.833 174.25,945.167 166.75,947.5C159.25,949.833 151.5,951 143.5,951C132.5,951 122.25,948.833 112.75,944.5C103.25,940.167 94.8333,934.417 87.5,927.25C80.1667,920.083 74.4167,911.667 70.25,902C66.0833,892.333 64,882 64,871ZM704.5,512C704.5,509.333 703.917,506.833 702.75,504.5C701.583,502.167 699.833,500.167 697.5,498.5L153,139.5C152,138.833 150.583,138.25 148.75,137.75C146.917,137.25 145.333,137 144,137C139.667,137 135.917,138.583 132.75,141.75C129.583,144.917 128,148.667 128,153L128,871C128,875.667 129.583,879.5 132.75,882.5C135.917,885.5 139.833,887 144.5,887C147.167,887 149.833,886.167 152.5,884.5L697.5,525.5C699.833,523.833 701.583,521.833 702.75,519.5C703.917,517.167 704.5,514.667 704.5,512Z" fill="#FFFFFF" fill-opacity="1">
  </path>
</svg>
